!!!OTL: 1605. Wanderlied der Handwerksgesellen.
!!!ARE: Europa, Mitteleuropa, Deutschland
!!!SCT: E1605
!!!TXL: @@DE
!!!YEM: Copyright 1995, estate of Helmut Schaffrath.
**kern	**text
*ICvox	*
*M3/4	*
*k[f#]	*
*G:	*
!LO:TX:a:t=W. v. Ditfurth, Volks- u. Geſellſchaftsl. Nr. 213.	!
{8b/	Habt
8a	ihr
=1	=1
4g	Luſt,
8gL	ihr
8dJ	.
8g	lie-
8a	-ben
=2	=2
4b	Brü-
4g}	-der,
{8a	auf
8b	die
=3	=3
4cc	Wan-
4b	-der-
8a	-ſchaft
8g	ʒu
=4	=4
2a}	gehn,
{8b/	So
8a	nehmt
=5	=5
4g	eu-
8gL	-re
8dJ	.
8g	Bün-
8a	-del
=6	=6
4b	wie-
4g}	-der,
{8a	laßt
8b	die
=7	=7
4cc	Frem-
4b	-de
8a	uns
8g	be-
=8	=8
2a}	-ſehn!
{8cc	Hier
8b	iſt
=9	=9
4a	nichts
4g	als
8f#	Plak-
8g	-ke-
=10	=10
2a}	-rei,
{8dd	drau-
8cc	-ßen
=11	=11
4b	iſt
4b	es
8a	ſchön
8a	und
=12	=12
2g}	frei.
==	==
!!!AGN: Staende -, Handwerker -, Gesellen - Lied, Wanderschaft
!!!ONB: ESAC (Essen Associative Code) Database: ERK3
!!!AMT: simple triple
!!!AIN: vox
!!!EED: Helmut Schaffrath
!!!EEV: 1.0
!!!GTL: Staendelieder (Berufslieder). 8. Handwerkerlieder.
!!!URL-scan: https://rosdok.uni-rostock.de/mcrviewer/recordIdentifier/rosdok_ppn745177999/iview2/phys_0431.iview2?x=-449.8344612962892&y=231.70951696648262&scale=0.47549036216460333&rotation=0&layout=singlePageLayout
!!!ENC: Anna Maria Matuszewska
!!!EEV: 2025/08/01
*-	*-
